X:300
T:Jim Conroy's Jig 
T:Leg of the Duck - Leis Lacha
R:jig
S:Mike Rafferty from Jim Conroy
N:This title (duck) is mainly known to another tune. I only found 
N:this name in the Henrik collection. All other versions of this
N: title are a different tune.
Z:lesl
M:6/8
K:G
GF|:DGG GAG|FEF Dz B|BAB GBd|cAF GFE| 
DGG GAG|FEF Dz B|ded cAF|1 ~G3 Gz F:|2 ~G3 Gz B/c/|| 
|:dgg dgg|ded cBc|dgf dz E|GFG ABc| 
[1 dz e gfg|afa gz f|ded cAF|~G3 G2z:| 
[2 dz g gfg|afa gz f|ded cAF|~G3 G3||
